X:15
T:Chez nous, soyez reine - V57
M:3/4
L:1/4
K:F
CS|:"^Refrain"c2d/>d/|ccB|A2B/>B/|c2G|BAG/F/|GGA|[1F2A|G2:|[2F2G|
F2C||"^Couplets"FAB/B/|ccB|A3/G/ F/G/|F2C|FAB/B/|ccB|A3/G/ F/G/|G2CS|]
